icon-themes/breeze_svg/cmd/32/dbviewaliases.svg

<svg viewBox="0 0 32 32" xmlns="http://www.w3.org/2000/svg"><path d="m16 4a5 5 0 0 0 -5 5 5 5 0 0 0 5 5 5 5 0 0 0 5-5 5 5 0 0 0 -5-5zm0 1a4 4 0 0 1 4 4 4 4 0 0 1 -4 4 4 4 0 0 1 -4-4 4 4 0 0 1 4-4zm0 11a8 4 0 0 0 -8 4v7 1h16v-1-7a8 4 0 0 0 -8-4zm0 1a7 3 0 0 1 7 3v7h-14v-7a7 3 0 0 1 7-3z" fill="#4d4d4d"/></svg>

<svg xmlns="http://www.w3.org/2000/svg" viewBox="0 0 32 32">
 <path 
     style="fill:#4d4d4d" 
     d="M 16 4 A 5 5 0 0 0 11 9 A 5 5 0 0 0 16 14 A 5 5 0 0 0 21 9 A 5 5 0 0 0 16 4 z M 16 5 A 4 4 0 0 1 20 9 A 4 4 0 0 1 16 13 A 4 4 0 0 1 12 9 A 4 4 0 0 1 16 5 z M 16 16 A 8 4 0 0 0 8 20 L 8 27 L 8 28 L 24 28 L 24 27 L 24 20 A 8 4 0 0 0 16 16 z M 16 17 A 7 3 0 0 1 23 20 L 23 27 L 9 27 L 9 20 A 7 3 0 0 1 16 17 z "
     />
</svg>
